X: 5690
T: C
R: polka
M: 2/4
K: Cmajor
|:G,C CB,/C/|DB, CD/E/|FF EC|B,/C/D/C/ B,/A,/G,|
G,C CB,/C/|DB, CD/E/|FF EC|DB, C2:|
|:EF/G/ EF/G/|ED/C/ B,>B,|C/B,/C/D/ E/D/C/B,/|A,B, A,G,|
EF/G/ EF/G/|ED/C/ B,>B,|C/B,/C/D/ E/D/C/B,/|A,B, C2:|

